static/card-icons/email-user.svg

<svg viewBox="0 0 512.001 512.001" xmlns="http://www.w3.org/2000/svg"><path d="m497.001 289.2h-196.166c40.283-29 66.564-76.285 66.564-129.6 0-88.004-71.596-159.6-159.6-159.6s-159.6 71.596-159.6 159.6c0 62.141 35.7 116.094 87.665 142.442-79.232 29.33-135.863 105.652-135.863 194.959 0 8.284 6.716 15 15 15h192.799 289.201c8.284 0 15-6.716 15-15v-192.801c-.001-8.284-6.716-15-15-15zm-47.729 30-96.872 63.468-96.871-63.468zm-256.472 162.801h-162.172c7.225-86.102 76.072-154.934 162.172-162.161zm-114.601-322.4c0-71.462 58.138-129.6 129.6-129.6s129.6 58.138 129.6 129.6-58.138 129.6-129.6 129.6-129.6-58.139-129.6-129.6zm403.802 322.4h-259.201v-148.378l121.379 79.524c2.497 1.636 5.358 2.453 8.221 2.453 2.861 0 5.725-.818 8.221-2.453l121.38-79.524z"/></svg>

<?xml version="1.0" encoding="iso-8859-1"?>
<!-- Generator: Adobe Illustrator 19.0.0, SVG Export Plug-In . SVG Version: 6.00 Build 0)  -->
<svg version="1.1" id="Capa_1" xmlns="http://www.w3.org/2000/svg" xmlns:xlink="http://www.w3.org/1999/xlink" x="0px" y="0px"
	 viewBox="0 0 512.001 512.001" style="enableBackground:new 0 0 512.001 512.001;" xml:space="preserve">
<g>
	<g>
		<path d="M497.001,289.2H300.835c40.283-29,66.564-76.285,66.564-129.6c0-88.004-71.596-159.6-159.6-159.6
			s-159.6,71.596-159.6,159.6c0,62.141,35.7,116.094,87.665,142.442C56.632,331.372,0.001,407.694,0.001,497.001
			c0,8.284,6.716,15,15,15H207.8h289.201c8.284,0,15-6.716,15-15V304.2C512,295.916,505.285,289.2,497.001,289.2z M449.272,319.2
			L352.4,382.668L255.529,319.2H449.272z M192.8,482.001H30.628c7.225-86.102,76.072-154.934,162.172-162.161V482.001z
			 M78.199,159.601c0-71.462,58.138-129.6,129.6-129.6s129.6,58.138,129.6,129.6s-58.138,129.6-129.6,129.6
			S78.199,231.062,78.199,159.601z M482.001,482.001H222.8V333.623l121.379,79.524c2.497,1.636,5.358,2.453,8.221,2.453
			c2.861,0,5.725-0.818,8.221-2.453l121.38-79.524V482.001z"/>
	</g>
</g>
<g>
</g>
<g>
</g>
<g>
</g>
<g>
</g>
<g>
</g>
<g>
</g>
<g>
</g>
<g>
</g>
<g>
</g>
<g>
</g>
<g>
</g>
<g>
</g>
<g>
</g>
<g>
</g>
<g>
</g>
</svg>
